**harm	**harte	**timestamp	**phrase	**leadinstrument	**kern
*M4/4	*M4/4	*	*	*	*
*D-:	*D-:	*	*	*	*D-:
1r;	N	0	.	r	1r;
=1	=1	=1	=1	=1	=1
*>A_intro	*>A_intro	*>A_intro	*>A_intro	*>A_intro	*>A_intro
2I	D-:maj	0.987	newline	guitar	2D- 2f 2a-
2IV	G-:maj	1.963	.	guitar	2G- 2b- 2dd-
=2	=2	=2	=2	=2	=2
2IV	G-:maj	2.94	.	guitar	2G- 2b- 2dd-
2I	D-:maj	3.916	.	guitar	2D- 2f 2a-
=3	=3	=3	=3	=3	=3
2I	D-:maj	4.892	.	guitar	2D- 2f 2a-
2IV	G-:maj	5.868	.	guitar	2G- 2b- 2dd-
=4	=4	=4	=4	=4	=4
2IV	G-:maj	6.844	.	guitar	2G- 2b- 2dd-
2I	D-:maj	7.82	.	guitar	2D- 2f 2a-
=5	=5	=5	=5	=5	=5
*>A_verse	*>A_verse	*>A_verse	*>A_verse	*>A_verse	*>A_verse
2I	D-:maj	8.796	newline	voice	2D- 2f 2a-
2IV	G-:maj	9.771	.	voice	2G- 2b- 2dd-
=6	=6	=6	=6	=6	=6
2IV	G-:maj	10.747	.	voice	2G- 2b- 2dd-
2I	D-:maj	11.722	.	voice	2D- 2f 2a-
=7	=7	=7	=7	=7	=7
2I	D-:maj	12.698	.	voice	2D- 2f 2a-
2IV	G-:maj	13.673	.	voice	2G- 2b- 2dd-
=8	=8	=8	=8	=8	=8
2IV	G-:maj	14.649	.	voice	2G- 2b- 2dd-
2I	D-:maj	15.624	.	voice	2D- 2f 2a-
=9	=9	=9	=9	=9	=9
2I	D-:maj	16.6	newline	voice	2D- 2f 2a-
2IV	G-:maj	17.58	.	voice	2G- 2b- 2dd-
=10	=10	=10	=10	=10	=10
2IV	G-:maj	18.56	.	voice	2G- 2b- 2dd-
2I	D-:maj	19.54	.	voice	2D- 2f 2a-
=11	=11	=11	=11	=11	=11
2I	D-:maj	20.52	.	voice	2D- 2f 2a-
2IV	G-:maj	21.5	.	voice	2G- 2b- 2dd-
=12	=12	=12	=12	=12	=12
2IV	G-:maj	22.48	.	voice	2G- 2b- 2dd-
2I	D-:maj	23.46	.	voice	2D- 2f 2a-
=13	=13	=13	=13	=13	=13
*>B_verse	*>B_verse	*>B_verse	*>B_verse	*>B_verse	*>B_verse
1iii	F:min	24.439	newline	voice	1F 1a- 1cc
=14	=14	=14	=14	=14	=14
1vi	B-:min	26.376	.	voice	1B- 1dd- 1ff
=15	=15	=15	=15	=15	=15
1iii	F:min	28.312	.	voice	1F 1a- 1cc
=16	=16	=16	=16	=16	=16
1vi	B-:min	30.248	.	voice	1B- 1dd- 1ff
=17	=17	=17	=17	=17	=17
2ii	E-:min	32.184	newline	voice	2E- 2g- 2b-
2iii	F:min	33.165	.	voice	2F 2a- 2cc
=18	=18	=18	=18	=18	=18
1V	A-:sus4	34.146	.	voice	1A- 1cc 1ee-
=19	=19	=19	=19	=19	=19
2I	D-:maj	36.109	.	voice	2D- 2f 2a-
2IV	G-:maj	37.09	.	voice	2G- 2b- 2dd-
=20	=20	=20	=20	=20	=20
2IV	G-:maj	38.071	.	voice	2G- 2b- 2dd-
4I	D-:maj	39.053	.	voice	4D- 4f 4a-
4V	A-:maj	39.543	.	voice	4A- 4cc 4ee-
=21	=21	=21	=21	=21	=21
*>A_verse	*>A_verse	*>A_verse	*>A_verse	*>A_verse	*>A_verse
2I	D-:maj	40.034	newline	voice	2D- 2f 2a-
2IV	G-:maj	41.024	.	voice	2G- 2b- 2dd-
=22	=22	=22	=22	=22	=22
2I	D-:maj	42.015	.	voice	2D- 2f 2a-
2IV	G-:maj	43.005	.	voice	2G- 2b- 2dd-
=23	=23	=23	=23	=23	=23
2I	D-:maj	43.995	.	voice	2D- 2f 2a-
2IV	G-:maj	44.986	.	voice	2G- 2b- 2dd-
=24	=24	=24	=24	=24	=24
2I	D-:maj	45.976	.	voice	2D- 2f 2a-
2IV	G-:maj	46.966	.	voice	2G- 2b- 2dd-
=25	=25	=25	=25	=25	=25
2I	D-:maj	47.957	newline	voice	2D- 2f 2a-
2IV	G-:maj	48.936	.	voice	2G- 2b- 2dd-
=26	=26	=26	=26	=26	=26
2I	D-:maj	49.916	.	voice	2D- 2f 2a-
2IV	G-:maj	50.896	.	voice	2G- 2b- 2dd-
=27	=27	=27	=27	=27	=27
2I	D-:maj	51.875	.	voice	2D- 2f 2a-
2IV	G-:maj	52.855	.	voice	2G- 2b- 2dd-
=28	=28	=28	=28	=28	=28
2I	D-:maj	53.834	.	voice	2D- 2f 2a-
2IV	G-:maj	54.814	.	voice	2G- 2b- 2dd-
=29	=29	=29	=29	=29	=29
*>B_verse	*>B_verse	*>B_verse	*>B_verse	*>B_verse	*>B_verse
1iii	F:min	55.793	newline	voice	1F 1a- 1cc
=30	=30	=30	=30	=30	=30
1vi	B-:min	57.732	.	voice	1B- 1dd- 1ff
=31	=31	=31	=31	=31	=31
1iii	F:min	59.67	.	voice	1F 1a- 1cc
=32	=32	=32	=32	=32	=32
1vi	B-:min	61.608	.	voice	1B- 1dd- 1ff
=33	=33	=33	=33	=33	=33
2ii	E-:min	63.546	newline	voice	2E- 2g- 2b-
2iii	F:min	64.524	.	voice	2F 2a- 2cc
=34	=34	=34	=34	=34	=34
1V	A-:sus4	65.501	.	voice	1A- 1cc 1ee-
=35	=35	=35	=35	=35	=35
2I	D-:maj	67.456	.	voice	2D- 2f 2a-
2IV	G-:maj	68.434	.	voice	2G- 2b- 2dd-
=36	=36	=36	=36	=36	=36
2IV	G-:maj	69.411	.	voice	2G- 2b- 2dd-
4I	D-:maj	70.389	.	voice	4D- 4f 4a-
4V	A-:maj	70.877	.	voice	4A- 4cc 4ee-
=37	=37	=37	=37	=37	=37
*>A_interlude	*>A_interlude	*>A_interlude	*>A_interlude	*>A_interlude	*>A_interlude
2I	D-:maj	71.366	newline	voice	2D- 2f 2a-
2IV	G-:maj	72.34	.	voice	2G- 2b- 2dd-
=38	=38	=38	=38	=38	=38
2I	D-:maj	73.314	.	voice	2D- 2f 2a-
2IV	G-:maj	74.288	.	voice	2G- 2b- 2dd-
=39	=39	=39	=39	=39	=39
2I	D-:maj	75.261	.	voice	2D- 2f 2a-
2IV	G-:maj	76.235	.	voice	2G- 2b- 2dd-
=40	=40	=40	=40	=40	=40
2IV	G-:maj	77.209	.	voice	2G- 2b- 2dd-
2I	D-:maj	78.183	.	voice	2D- 2f 2a-
=41	=41	=41	=41	=41	=41
2ii	E-:min	79.157	newline	voice	2E- 2g- 2b-
2iii	F:min	80.135	.	voice	2F 2a- 2cc
=42	=42	=42	=42	=42	=42
2iii7	F:min7	81.114	.	voice	2F 2a- 2cc 2ee-
2VI	B-:maj	82.092	.	voice	2B- 2dd 2ff
=43	=43	=43	=43	=43	=43
*>A2_verse	*>A2_verse	*>A2_verse	*>A2_verse	*>A2_verse	*>A2_verse
*E-:	*E-:	*	*	*	*E-:
2I	E-:maj	83.071	newline	voice	2E- 2g 2b-
2IV	A-:maj	84.043	.	voice	2A- 2cc 2ee-
=44	=44	=44	=44	=44	=44
2I	E-:maj	85.015	.	voice	2E- 2g 2b-
2IV	A-:maj	85.986	.	voice	2A- 2cc 2ee-
=45	=45	=45	=45	=45	=45
2I	E-:maj	86.958	.	voice	2E- 2g 2b-
2IV	A-:maj	87.93	.	voice	2A- 2cc 2ee-
=46	=46	=46	=46	=46	=46
2I	E-:maj	88.902	.	voice	2E- 2g 2b-
2IV	A-:maj	89.873	.	voice	2A- 2cc 2ee-
=47	=47	=47	=47	=47	=47
2I	E-:maj	90.845	newline	voice	2E- 2g 2b-
2IV	A-:maj	91.828	.	voice	2A- 2cc 2ee-
=48	=48	=48	=48	=48	=48
2I	E-:maj	92.811	.	voice	2E- 2g 2b-
2IV	A-:maj	93.794	.	voice	2A- 2cc 2ee-
=49	=49	=49	=49	=49	=49
2I	E-:maj	94.777	.	voice	2E- 2g 2b-
2IV	A-:maj	95.76	.	voice	2A- 2cc 2ee-
=50	=50	=50	=50	=50	=50
2I	E-:maj	96.743	.	voice	2E- 2g 2b-
2IV	A-:maj	97.726	.	voice	2A- 2cc 2ee-
=51	=51	=51	=51	=51	=51
*>B2_verse	*>B2_verse	*>B2_verse	*>B2_verse	*>B2_verse	*>B2_verse
1iii	G:min	98.709	newline	voice	1G 1b- 1dd
=52	=52	=52	=52	=52	=52
1vi	C:min	100.658	.	voice	1C 1e- 1g
=53	=53	=53	=53	=53	=53
1iii	G:min	102.606	.	voice	1G 1b- 1dd
=54	=54	=54	=54	=54	=54
1vi	C:min	104.555	.	voice	1C 1e- 1g
=55	=55	=55	=55	=55	=55
2ii	F:min	106.503	newline	voice	2F 2a- 2cc
2iii	G:min	107.471	.	voice	2G 2b- 2dd
=56	=56	=56	=56	=56	=56
1V7	B-:11	108.439	.	voice	1B- 1dd 1ff 1aa-
=57	=57	=57	=57	=57	=57
2ii	F:min	110.375	.	voice	2F 2a- 2cc
2iii	G:min	111.342	.	voice	2G 2b- 2dd
=58	=58	=58	=58	=58	=58
1V7	B-:11	112.31	.	voice	1B- 1dd 1ff 1aa-
=59	=59	=59	=59	=59	=59
2I	E-:maj	114.246	.	voice	2E- 2g 2b-
2IV	A-:maj	115.214	.	voice	2A- 2cc 2ee-
=60	=60	=60	=60	=60	=60
2IV	A-:maj	116.182	.	voice	2A- 2cc 2ee-
2I	E-:maj	117.15	.	voice	2E- 2g 2b-
=61	=61	=61	=61	=61	=61
*>B2_outro	*>B2_outro	*>B2_outro	*>B2_outro	*>B2_outro	*>B2_outro
2ii	F:min	118.117	newline	voice	2F 2a- 2cc
2iii	G:min	119.088	.	voice	2G 2b- 2dd
=62	=62	=62	=62	=62	=62
1V7	B-:11	120.06	.	voice	1B- 1dd 1ff 1aa-
=63	=63	=63	=63	=63	=63
2ii	F:min	122.002	.	voice	2F 2a- 2cc
2iii	G:min	122.973	.	voice	2G 2b- 2dd
=64	=64	=64	=64	=64	=64
1V7	B-:11	123.944	.	voice	1B- 1dd 1ff 1aa-
=65	=65	=65	=65	=65	=65
2I	E-:maj	125.886	.	voice	2E- 2g 2b-
2IV	A-:maj	126.857	.	voice	2A- 2cc 2ee-
=66	=66	=66	=66	=66	=66
2IV	A-:maj	127.828	.	voice	2A- 2cc 2ee-
2I	E-:maj	128.799	.	voice	2E- 2g 2b-
=67	=67	=67	=67	=67	=67
2ii	F:min	129.77	newline	fadeout voice	2F 2a- 2cc
2iii	G:min	130.663	.	fadeout voice	2G 2b- 2dd
=68	=68	=68	=68	=68	=68
1V7	B-:11	131.555	.	fadeout voice	1B- 1dd 1ff 1aa-
=69	=69	=69	=69	=69	=69
2ii	F:min	133.341	.	fadeout voice	2F 2a- 2cc
2iii	G:min	134.234	.	fadeout voice	2G 2b- 2dd
=70	=70	=70	=70	=70	=70
1V7	B-:11	135.126	.	fadeout voice	1B- 1dd 1ff 1aa-
=71	=71	=71	=71	=71	=71
2I	E-:maj	136.912	.	fadeout voice	2E- 2g 2b-
2IV	A-:maj	137.805	.	fadeout voice	2A- 2cc 2ee-
=72	=72	=72	=72	=72	=72
2IV	A-:maj	138.697	.	fadeout voice	2A- 2cc 2ee-
2I	E-:maj	139.59	.	fadeout voice	2E- 2g 2b-
1r;	N	140.483	.	r	1r;
1r;	N	146.233	.	r	1r;
*-	*-	*-	*-	*-	*-
!!!OTL: If I Could Build My Whole World Around You
!!!COC: Marvin Gaye & Tammi Terrell
!!!BillboardChartDate: 1967/12/23, 1967/12/23, 1967/12/09
!!!BillboardPeak: 10, 10, 10
!!!BillboardWeeksOnChart: 11, 11, 11
!!!SampleTargetRank: 22, 24, 49
!!!SampleActualRank: 23, 23, 47
!!!SampleID#: 619, 1100, 1117
!!!RDF**harmony: **recip + pitch class of root + harmonic quality
!!!RDF**harte: Chris Harte's syntax, used by MIREX
!!!RDF**phrase: newline = linebreak in original McGill transcription
!!!RDF**timestamp: McGill audio timestamp in seconds
!!!RDF**leadinstrument: original McGill primary instrumentation annotation
!!!RDT: 2017/01/12/
!!!ENC: Nathaniel Condit-Schultz
!!!EST: Awating manual error checking and editing.
